public/images/corner-dashed-tl.svg

<?xml version="1.0" encoding="UTF-8" standalone="no"?>
<!DOCTYPE svg PUBLIC "-//W3C//DTD SVG 1.1//EN" "http://www.w3.org/Graphics/SVG/1.1/DTD/svg11.dtd">
<svg width="100%" height="100%" viewBox="0 0 114 70" version="1.1" xmlns="http://www.w3.org/2000/svg" xmlns:xlink="http://www.w3.org/1999/xlink" xml:space="preserve" xmlns:serif="http://www.serif.com/" style="fill-rule:evenodd;clip-rule:evenodd;stroke-linejoin:round;stroke-miterlimit:2;">
    <path d="M93.65,0.92C95,0.67 96.07,0.41 97.18,0.27C98.213,0.122 99.257,0.068 100.3,0.11C100.51,0.11 100.86,0.83 100.84,1.18C100.82,1.53 100.4,2.18 100.15,2.18C98.31,2.18 96.47,2.04 94.62,1.95C94.286,1.983 93.949,1.966 93.62,1.9C93.49,1.9 93.38,1.49 93.39,1.28C93.4,1.07 93.64,0.94 93.65,0.92ZM88.57,1.57C88.34,2.29 87.79,2.25 87.32,2.3C86.319,2.349 85.316,2.315 84.32,2.2C83.62,2.077 82.911,2.01 82.2,2C81.69,2.05 81.43,1.82 81.27,1.19C81.251,1.071 81.302,0.95 81.4,0.88C83,0.58 84.56,0.62 86.2,0.33C86.52,0.27 86.84,0.16 87.2,0.07C87.81,-0.1 88.56,0.55 88.57,1.57ZM107,0.68C108,0.52 109.55,0.41 110.22,0.29C110.876,0.132 111.546,0.035 112.22,0C112.55,0 112.9,0.36 113.16,0.65C113.23,0.74 113.02,1.14 112.93,1.4C112.57,2.49 111.74,2.11 111.04,2.12C110.34,2.13 108.29,1.8 107.54,1.85C106.79,1.9 106.54,1.69 106.87,0.85C106.84,0.67 107.07,0.62 107,0.68ZM56.85,1.07C58.17,0.82 59.27,0.56 60.38,0.42C61.413,0.272 62.457,0.218 63.5,0.26C63.71,0.26 64.06,0.98 64.04,1.33C64.02,1.68 63.6,2.33 63.35,2.33C61.51,2.33 59.67,2.19 57.82,2.1C57.486,2.133 57.149,2.116 56.82,2.05C56.69,2.05 56.58,1.64 56.59,1.43C56.6,1.22 56.84,1.09 56.85,1.07ZM51.77,1.72C51.54,2.44 50.99,2.4 50.52,2.45C49.502,2.491 48.483,2.458 47.47,2.35C46.787,2.22 46.095,2.143 45.4,2.12C44.89,2.12 44.63,1.94 44.47,1.31C44.449,1.19 44.5,1.069 44.6,1C46.23,0.7 47.76,0.74 49.4,0.45C49.72,0.39 50.04,0.28 50.4,0.19C51,0.05 51.76,0.69 51.77,1.72ZM70.17,0.83C71.17,0.67 72.72,0.55 73.39,0.44C74.045,0.277 74.715,0.18 75.39,0.15C75.72,0.15 76.07,0.51 76.33,0.8C76.4,0.89 76.19,1.29 76.1,1.55C75.74,2.64 74.91,2.25 74.21,2.27C73.51,2.29 71.42,2 70.67,2C69.92,2 69.67,1.84 70,0.94C70,0.82 70.27,0.77 70.17,0.83ZM20.05,1.21C21.37,1 22.46,0.71 23.58,0.56C24.614,0.42 25.658,0.37 26.7,0.41C26.91,0.41 27.26,1.12 27.24,1.48C27.22,1.84 26.8,2.48 26.55,2.48C24.71,2.48 22.87,2.35 21.02,2.26C20.685,2.284 20.349,2.264 20.02,2.2C19.89,2.2 19.78,1.8 19.79,1.59C19.8,1.38 20,1.24 20.05,1.21ZM15,1.87C14.83,2.59 14.33,2.55 13.9,2.59C12.956,2.639 12.009,2.609 11.07,2.5C10.388,2.366 9.695,2.289 9,2.27C8.55,2.27 8.17,2.09 7.62,1.46C7.55,1.39 7.53,1.2 7.62,1.19C9.11,0.88 10.73,0.91 12.38,0.62C12.718,0.556 13.052,0.473 13.38,0.37C13.42,0.367 13.46,0.365 13.5,0.365C14.323,0.365 15,1.042 15,1.865C15,1.867 15,1.868 15,1.87ZM33.37,1C34.37,0.84 35.92,0.72 36.59,0.61C37.245,0.447 37.915,0.35 38.59,0.32C38.92,0.32 39.27,0.68 39.53,0.97C39.6,1.06 39.39,1.46 39.3,1.72C38.94,2.8 38.11,2.42 37.41,2.44C36.71,2.46 34.66,2.12 33.91,2.17C33.16,2.22 32.91,2.01 33.24,1.11C33.24,1 33.47,0.92 33.37,1ZM3.11,20.28C2.6,19 2.17,18.06 1.76,16.9C1.378,15.837 1.087,14.743 0.89,13.63C0.89,13.41 1.52,13.14 1.89,13.22C2.363,13.344 2.784,13.618 3.09,14C3.44,15.69 3.66,17.27 3.94,19.17C4.027,19.479 4.07,19.799 4.07,20.12C4.07,20.26 3.72,20.44 3.51,20.47C3.3,20.5 3.14,20.29 3.11,20.28ZM4.69,25.16C5.44,25.26 5.5,25.81 5.62,26.27C5.83,27.259 5.967,28.261 6.03,29.27C6.006,29.968 6.033,30.666 6.11,31.36C6.24,31.86 6.05,32.15 5.45,32.36C5.38,32.36 5.17,32.36 5.15,32.27C4.61,30.7 4.42,29.19 3.86,27.63C3.74,27.32 3.603,27.016 3.45,26.72C3.18,26.19 3.68,25.35 4.69,25.16ZM0.18,7C0.056,6.395 -0.005,5.778 0,5.16C0.013,4.618 0.08,4.079 0.2,3.55C0.292,2.844 0.624,2.191 1.14,1.7C1.546,1.517 2.006,1.492 2.43,1.63C2.56,1.63 2.63,2.02 2.85,2.34C3.63,3.54 2.63,3.61 2.32,4.22C2.029,4.655 1.793,5.126 1.62,5.62C1.446,6.117 1.375,6.644 1.41,7.17C1.46,7.6 1.41,7.81 1.27,7.81C0.89,7.713 0.543,7.512 0.27,7.23C0.18,7.13 0.11,6.88 0.18,7ZM7.8,56.72C7.47,55.42 7.16,54.34 6.94,53.25C6.721,52.23 6.591,51.193 6.55,50.15C6.55,49.94 7.23,49.54 7.55,49.53C7.87,49.52 8.55,49.89 8.6,50.14C8.73,51.98 8.74,53.84 8.75,55.69C8.799,56.022 8.799,56.358 8.75,56.69C8.75,56.82 8.36,56.96 8.15,56.96C7.94,56.96 7.82,56.73 7.8,56.72ZM8.68,61.76C9.41,61.97 9.39,62.53 9.44,63C9.525,64.018 9.525,65.042 9.44,66.06C9.312,66.746 9.241,67.442 9.23,68.14C9.29,68.65 9.06,68.91 8.43,69.08C8.35,69.08 8.15,69.01 8.14,68.95C7.83,67.32 7.86,65.8 7.51,64.17C7.437,63.831 7.344,63.497 7.23,63.17C7,62.58 7.66,61.81 8.68,61.76ZM6.51,43.48C6.26,42.55 5.97,40.98 5.77,40.33C5.537,39.71 5.359,39.071 5.24,38.42C5.292,38.032 5.485,37.677 5.78,37.42C5.85,37.33 6.28,37.49 6.55,37.54C7.67,37.77 7.39,38.64 7.49,39.34C7.59,40.04 7.49,42.12 7.62,42.86C7.75,43.6 7.56,43.86 6.62,43.64C6.51,43.6 6.44,43.39 6.51,43.48Z" style="fill:white;fill-rule:nonzero;"/>
</svg>

<svg xmlns="http://www.w3.org/2000/svg" viewBox="0 0 113.1 69.09"><path d="M93.65.92C95 .67 96.07.41 97.18.27a17.13 17.13 0 013.12-.16c.21 0 .56.72.54 1.07s-.44 1-.69 1c-1.84 0-3.68-.14-5.53-.23a3.4 3.4 0 01-1-.05c-.13 0-.24-.41-.23-.62s.25-.34.26-.36zm-5.08.65c-.23.72-.78.68-1.25.73a18.34 18.34 0 01-3-.1A13.38 13.38 0 0082.2 2c-.51.05-.77-.18-.93-.81a.32.32 0 01.13-.31c1.6-.3 3.16-.26 4.8-.55.32-.06.64-.17 1-.26.61-.17 1.36.48 1.37 1.5zM107 .68c1-.16 2.55-.27 3.22-.39a11 11 0 012-.29c.33 0 .68.36.94.65.07.09-.14.49-.23.75-.36 1.09-1.19.71-1.89.72s-2.75-.32-3.5-.27-1-.16-.67-1c-.03-.18.2-.23.13-.17zm-50.15.39c1.32-.25 2.42-.51 3.53-.65A17.13 17.13 0 0163.5.26c.21 0 .56.72.54 1.07s-.44 1-.69 1c-1.84 0-3.68-.14-5.53-.23a3.4 3.4 0 01-1-.05c-.13 0-.24-.41-.23-.62s.25-.34.26-.36zm-5.08.65c-.23.72-.78.68-1.25.73a20.78 20.78 0 01-3.05-.1 13.38 13.38 0 00-2.07-.23c-.51 0-.77-.18-.93-.81A.31.31 0 0144.6 1c1.63-.3 3.16-.26 4.8-.55.32-.06.64-.17 1-.26.6-.14 1.36.5 1.37 1.53zm18.4-.89c1-.16 2.55-.28 3.22-.39a10.2 10.2 0 012-.29c.33 0 .68.36.94.65.07.09-.14.49-.23.75-.36 1.09-1.19.7-1.89.72S71.42 2 70.67 2s-1-.16-.67-1.06c0-.12.27-.17.17-.11zm-50.12.38c1.32-.21 2.41-.5 3.53-.65A18.07 18.07 0 0126.7.41c.21 0 .56.71.54 1.07s-.44 1-.69 1c-1.84 0-3.68-.13-5.53-.22a3.82 3.82 0 01-1-.06c-.13 0-.24-.4-.23-.61s.21-.35.26-.38zM15 1.87c-.17.72-.67.68-1.1.72a17 17 0 01-2.83-.09A12.49 12.49 0 009 2.27c-.45 0-.83-.18-1.38-.81-.07-.07-.09-.26 0-.27C9.11.88 10.73.91 12.38.62a8.8 8.8 0 001-.25A1.5 1.5 0 0115 1.87zM33.37 1c1-.16 2.55-.28 3.22-.39a10.2 10.2 0 012-.29c.33 0 .68.36.94.65.07.09-.14.49-.23.75-.36 1.08-1.19.7-1.89.72s-2.75-.32-3.5-.27-1-.16-.67-1.06c0-.11.23-.19.13-.11zM3.11 20.28C2.6 19 2.17 18.06 1.76 16.9a20 20 0 01-.87-3.27c0-.22.63-.49 1-.41a2.28 2.28 0 011.2.78c.35 1.69.57 3.27.85 5.17a3.51 3.51 0 01.13.95c0 .14-.35.32-.56.35s-.37-.18-.4-.19zm1.58 4.88c.75.1.81.65.93 1.11a20.62 20.62 0 01.41 3 14.39 14.39 0 00.08 2.09c.13.5-.06.79-.66 1-.07 0-.28 0-.3-.09-.54-1.57-.73-3.08-1.29-4.64a9.34 9.34 0 00-.41-.91c-.27-.53.23-1.37 1.24-1.56zM.18 7A8.8 8.8 0 010 5.16a8.22 8.22 0 01.2-1.61 3.11 3.11 0 01.94-1.85 1.79 1.79 0 011.29-.07c.13 0 .2.39.42.71.78 1.2-.22 1.27-.53 1.88a6.22 6.22 0 00-.7 1.4 3.9 3.9 0 00-.21 1.55c.05.43 0 .64-.14.64a2.13 2.13 0 01-1-.58C.18 7.13.11 6.88.18 7zM7.8 56.72c-.33-1.3-.64-2.38-.86-3.47a18.13 18.13 0 01-.39-3.1c0-.21.68-.61 1-.62s1 .36 1.05.61c.13 1.84.14 3.7.15 5.55a3.42 3.42 0 010 1c0 .13-.39.27-.6.27s-.33-.23-.35-.24zm.88 5.04c.73.21.71.77.76 1.24a18.4 18.4 0 010 3.06 12.43 12.43 0 00-.21 2.08c.06.51-.17.77-.8.94-.08 0-.28-.07-.29-.13-.31-1.63-.28-3.15-.63-4.78a8.53 8.53 0 00-.28-1c-.23-.59.43-1.36 1.45-1.41zM6.51 43.48c-.25-.93-.54-2.5-.74-3.15a11.09 11.09 0 01-.53-1.91 1.61 1.61 0 01.54-1c.07-.09.5.07.77.12 1.12.23.84 1.1.94 1.8s0 2.78.13 3.52-.06 1-1 .78c-.11-.04-.18-.25-.11-.16z" fill="#FFFFFF"/></svg>
